X: 1
T: Reel des Chantiers
T: Reel du chauffeur
N: Derived from Ned Kendall's Hornpipe (Ryan's Mammoth Collection, 1883)
O: Qu\'ebec
R: reel
Z: 2020 John Chambers <jc:trillian.mit.edu>
S: https://www.facebook.com/groups/Fiddletuneoftheday/ 2020-10-28
S: https://www.facebook.com/groups/Fiddletuneoftheday/photos/
D: Joseph Allard: 1929 as "Reel du chauffeur"; 1937 as "Reel des chantiers"
B: Dawson Girdwood "Fiddle Music in the Ottawa Valley" 1985, p.78 #68
M: 2/4
L: 1/16
K: D
   FG | Adcd Adcd | ecde fdB2 | g2f2 ecAc |[1,3 edcB AG :|[2,4 e2d2 d2 :|
|: FG | ABAG FDFA | BABc d2 [1,3 dB | AFdB AFDF | G2E2 E2 :|[2,4 cd | efed cABc | d2f2 d2 :|
